X: 2369
T: Baitheadh Bhrioclais
R: jig
M: 6/8
K: Gmajor
|:g|fed efg|ded dBG|ABA A2G|ABA A2g|
fed efg|ded dBG|AGA B2A|1 GAGG2 g:|2 GAG GAB||
|:cBc ecA|BAB dBG|ABA A2G|ABA A2B|
cBc edc|BGB dBG|AGA B2A|1 GAG GAB:|2 GAG G2 g||

